!!! OTL: Berkowitz491
!!! Chapter: 1
!!! Section: IV
!!! Page: 122
!!! Mode: 
!!! Encoder: DJB
**kern
*staff1
*I"Piano
=1-
*clefG2
*k[f#]
*G:
*M4/4
4d/
8ee\L
8cc#\J
4dd\
8ccn\L
8a#\J
=2
4b\
8a/L
8f#/J
[2g/
=3
4g/]
4b\
4e/
4cc\
=4
4e-/
4cc#\
4dd\
[4d/
=5
4d/]
8ee\L
8cc#\J
4dd\
8cc#\L
8a#\J
=6
4b\
8g/L
8f#/J
[2e/
=7
4e/]
4g/
4e-/
4c#/
=8
!!linebreak:original
4d/
8cc\L
8b\J
2g/
==
*-
